icons/relative-to-ground-elevation-16.svg

<svg id="icons" xmlns="http://www.w3.org/2000/svg" viewBox="0 0 16 16"><defs><style>.cls-1{fill:none;}</style></defs><rect class="cls-1" width="16" height="16"/><path d="M8.5,5.8501A2.3501,2.3501,0,1,0,6.15039,3.5,2.35075,2.35075,0,0,0,8.5,5.8501ZM8.5,2A1.5,1.5,0,1,1,7,3.5,1.50172,1.50172,0,0,1,8.5,2ZM9,12H8V11H9ZM8,13H9v1H8Zm1-3H8V9H9ZM9,8H8V7H9Zm7,7v1H1V0H2V1H3V2H2V3H3V4H2V5H3v.991H2V7.018H3V8H2V9H3v1H2v1H3v1H2v1H3v1H2v1Z"/></svg>

<svg xmlns="http://www.w3.org/2000/svg" viewBox="0 0 16 16"><path fill="none" d="M0 0h16v16H0z"/><path d="M8.5 5.85A2.35 2.35 0 1 0 6.15 3.5 2.35 2.35 0 0 0 8.5 5.85zM8.5 2A1.5 1.5 0 1 1 7 3.5 1.502 1.502 0 0 1 8.5 2zM9 12H8v-1h1zm-1 1h1v1H8zm1-3H8V9h1zm0-2H8V7h1zm7 7v1H1V0h1v1h1v1H2v1h1v1H2v1h1v.991H2v1.027h1V8H2v1h1v1H2v1h1v1H2v1h1v1H2v1z"/></svg>
